X:508
T:When This Bloody War is Over
T:What a Friend We Have In Jesus
M:4/4
L:1/8
K:G
d3 d edBG | G4 E4 | D3 G BGdB | A4- A4 |
d3 d edBG | G4 E4 | D3 G BAGF | G4- G4 |
A3 B cBcA | B4 d4 | e3 e dBcB | A4- A4 |
d3 d edBG | G4 E4 | D3 G BAGF | G4- G4 |
